assets/shop-tab/Asset/Bata.svg

<svg width="93" height="52" viewBox="0 0 93 52" fill="none" xmlns="http://www.w3.org/2000/svg">
<path fill-rule="evenodd" clip-rule="evenodd" d="M0 8C0 3.58172 3.58172 0 8 0H85C89.4183 0 93 3.58172 93 8V21.1C90.7178 21.5633 89 23.581 89 26C89 28.419 90.7178 30.4367 93 30.9V44C93 48.4183 89.4183 52 85 52H8C3.58172 52 0 48.4183 0 44V30.9C2.28224 30.4367 4 28.419 4 26C4 23.581 2.28224 21.5633 0 21.1V8Z" fill="#EB1C24"/>
<path fill-rule="evenodd" clip-rule="evenodd" d="M57.6293 20.2976C58.1467 17.3077 61.3412 15.7909 63.7 15.937C64.6101 15.9925 65.3954 16.2994 65.8518 16.8635H65.8544C65.8544 16.8635 65.8544 16.8635 65.8571 16.8635C66.0455 16.6443 66.2312 16.428 66.4222 16.2088C66.5337 16.0831 66.8494 16.1241 67.128 16.1796C67.4464 16.2439 67.7834 16.3871 68.001 16.3871C68.2212 16.3871 68.7439 16.2117 69.24 16.1299C69.7362 16.0481 70.2085 16.0598 70.1262 16.2819L69.6831 17.4948H69.6911L68.2398 21.4521C67.9505 22.2412 69.0835 22.0308 70.6569 20.1983C70.9275 20.3941 71.0496 20.4291 71.3176 21.1657C69.9723 22.437 68.6908 23.3518 66.9105 24.0269C65.3105 24.6349 64.1325 23.7551 63.7637 22.2909C61.4924 24.6349 58.3271 24.6086 57.417 21.9665C55.9391 22.7702 54.1747 23.6236 53.4424 23.8574C52.8693 24.0416 52.3466 24.1672 51.8557 24.1731C51.0703 24.1789 50.2107 23.3723 50.4813 22.1857C49.1785 22.8199 48.1438 23.2349 46.65 23.8019C45.05 24.4098 44.132 23.7581 43.7605 22.2938C41.4867 24.6378 38.3213 24.6115 37.4139 21.9665C36.5224 22.4399 35.2859 23.1355 34.1503 23.6236C32.3222 24.5296 30.181 24.3484 28.5811 22.5013L29.1038 21.5953C29.8573 22.4779 30.7754 22.4282 31.4971 21.7122C32.2639 20.9494 32.7494 19.4764 32.4018 18.2722C32.2479 17.7432 31.7067 17.337 30.6878 17.41L31.0035 16.4865C32.0436 16.4456 32.8582 16.2936 33.3066 15.5717C33.9381 14.5604 33.9487 13.0027 32.5955 13.0436C32.3567 13.0523 32.0755 13.1079 31.7491 13.2219C31.5156 13.9847 31.1017 14.8878 30.7701 15.8347C30.0112 17.9946 29.1622 20.3941 28.1778 21.9402C27.0024 23.7814 25.7474 24.1468 24.7338 24.0708C23.6752 23.9919 22.8447 23.6382 21.6825 22.4867C21.6772 21.9986 21.7223 21.7853 21.8046 21.1774C22.2106 21.8086 23.6115 22.4779 24.0652 21.7443C25.0814 20.1047 26.1984 16.9395 27.0316 14.8965C26.278 15.1713 25.5802 15.6769 24.5906 16.4309C24.6012 16.3053 24.2615 16.0305 24.2748 15.6652C25.8562 13.6544 28.658 12.4269 30.5445 11.9885C33.4286 11.3163 36.5224 12.2925 36.9867 14.3003C37.2971 15.6389 35.8617 16.8956 34.5165 17.0769C35.2913 17.5796 36.1138 18.4534 36.3207 19.5202C36.4242 20.058 36.395 20.6367 36.2411 21.192C36.6948 20.9611 37.2414 20.6571 37.6023 20.4934C38.1701 16.1971 44.1957 14.8176 45.8593 16.8693L46.4297 16.2147C46.5412 16.089 46.8569 16.1299 47.1355 16.1854C47.4539 16.2497 47.7909 16.3929 48.0084 16.3929C48.2287 16.3929 48.7514 16.2176 49.2475 16.1358C49.7437 16.0539 50.216 16.0656 50.1337 16.2877L48.2393 21.4579C47.8121 22.627 50.9562 20.5577 51.142 20.4438L52.4925 17.2814L51.1022 17.3019L51.3516 16.0013H52.8878C53.1399 15.6331 53.2168 15.1888 53.5512 14.9112C54.0075 14.5341 55.045 14.7358 55.5226 14.3938C55.9338 14.0957 56.2522 13.6486 56.6343 12.9617C56.9633 12.3655 58.1626 12.5204 57.9317 13.0845L56.8598 16.0364L58.2156 16.0218C58.8604 16.0598 58.3058 17.2376 57.5735 17.2464L56.4539 17.2697L55.1537 20.9757C54.7266 22.1915 56.3875 21.1101 57.6319 20.3035L57.6293 20.2976ZM45.1854 17.7608C45.0368 17.1996 44.5937 17.0476 44.2089 17.0915C43.2989 17.1996 42.4206 18.3102 41.9696 19.0847C41.2479 20.3239 41.4177 22.1535 42.5666 21.8116C43.7818 21.4521 45.4003 18.5762 45.1854 17.7578V17.7608ZM65.1885 17.7608C65.0399 17.1996 64.5968 17.0476 64.2121 17.0915C63.302 17.1996 62.4237 18.3102 61.9727 19.0847C61.251 20.3239 61.4208 22.1535 62.5697 21.8116C63.7849 21.4521 65.406 18.5762 65.1885 17.7578V17.7608Z" fill="white"/>
<path d="M10 36C10 32.6863 12.6863 30 16 30H77C80.3137 30 83 32.6863 83 36V52H10V36Z" fill="url(#paint0_linear_634_1317)"/>
<path d="M25.131 45L28.146 39.0341V38.9844H24.6339V37.7273H29.7369V39.0021L26.7184 45H25.131ZM30.4391 45.0923C30.2047 45.0923 30.0035 45.0095 29.8354 44.8438C29.6697 44.6757 29.5868 44.4744 29.5868 44.2401C29.5868 44.008 29.6697 43.8092 29.8354 43.6435C30.0035 43.4777 30.2047 43.3949 30.4391 43.3949C30.6664 43.3949 30.8652 43.4777 31.0357 43.6435C31.2061 43.8092 31.2914 44.008 31.2914 44.2401C31.2914 44.3963 31.2511 44.5395 31.1706 44.6697C31.0925 44.7976 30.9895 44.9006 30.8617 44.9787C30.7338 45.0545 30.593 45.0923 30.4391 45.0923ZM35.1168 45.0994C34.6149 45.0994 34.1675 45.0071 33.7745 44.8224C33.3839 44.6378 33.0737 44.3833 32.8441 44.0589C32.6145 43.7346 32.4949 43.3629 32.4854 42.9439H33.9769C33.9935 43.2256 34.1119 43.4541 34.332 43.6293C34.5522 43.8045 34.8138 43.892 35.1168 43.892C35.3583 43.892 35.5714 43.8388 35.756 43.7322C35.9431 43.6233 36.0887 43.473 36.1928 43.2812C36.2994 43.0871 36.3526 42.8646 36.3526 42.6136C36.3526 42.358 36.2982 42.133 36.1893 41.9389C36.0827 41.7448 35.9348 41.5933 35.7454 41.4844C35.556 41.3755 35.3394 41.3198 35.0955 41.3175C34.8825 41.3175 34.6753 41.3613 34.4741 41.4489C34.2752 41.5365 34.1201 41.656 34.0089 41.8075L32.6417 41.5625L32.9862 37.7273H37.4322V38.9844H34.2539L34.0657 40.8061H34.1083C34.2362 40.6262 34.4291 40.477 34.6871 40.3587C34.9452 40.2403 35.234 40.1811 35.5536 40.1811C35.9916 40.1811 36.3822 40.2841 36.7255 40.4901C37.0688 40.696 37.3398 40.9789 37.5387 41.3388C37.7376 41.6963 37.8358 42.1082 37.8335 42.5746C37.8358 43.0646 37.7222 43.5002 37.4925 43.8814C37.2653 44.2602 36.9469 44.5585 36.5373 44.7763C36.1301 44.9917 35.6566 45.0994 35.1168 45.0994ZM42.8867 43.6364V43.2528C42.8867 42.9616 42.9483 42.6941 43.0714 42.4503C43.1969 42.2041 43.378 42.0076 43.6147 41.8608C43.8538 41.7116 44.145 41.6371 44.4883 41.6371C44.8363 41.6371 45.1287 41.7105 45.3654 41.8572C45.6045 42.004 45.7844 42.2005 45.9052 42.4467C46.0283 42.6906 46.0898 42.9593 46.0898 43.2528V43.6364C46.0898 43.9276 46.0283 44.1963 45.9052 44.4425C45.7821 44.6863 45.601 44.8816 45.3619 45.0284C45.1228 45.1776 44.8316 45.2521 44.4883 45.2521C44.1403 45.2521 43.8479 45.1776 43.6112 45.0284C43.3744 44.8816 43.1945 44.6863 43.0714 44.4425C42.9483 44.1963 42.8867 43.9276 42.8867 43.6364ZM43.9201 43.2528V43.6364C43.9201 43.8045 43.9603 43.9631 44.0408 44.1122C44.1237 44.2614 44.2728 44.3359 44.4883 44.3359C44.7037 44.3359 44.8505 44.2625 44.9286 44.1158C45.0091 43.969 45.0494 43.8092 45.0494 43.6364V43.2528C45.0494 43.08 45.0115 42.919 44.9357 42.7699C44.86 42.6207 44.7108 42.5462 44.4883 42.5462C44.2752 42.5462 44.1272 42.6207 44.0444 42.7699C43.9615 42.919 43.9201 43.08 43.9201 43.2528ZM39.1545 39.4744V39.0909C39.1545 38.7973 39.2172 38.5286 39.3427 38.2848C39.4682 38.0386 39.6493 37.8421 39.886 37.6953C40.1251 37.5485 40.4139 37.4751 40.7525 37.4751C41.1029 37.4751 41.3964 37.5485 41.6332 37.6953C41.8699 37.8421 42.0498 38.0386 42.1729 38.2848C42.296 38.5286 42.3576 38.7973 42.3576 39.0909V39.4744C42.3576 39.768 42.2949 40.0367 42.1694 40.2805C42.0463 40.5244 41.8652 40.7197 41.6261 40.8665C41.3893 41.0109 41.0981 41.0831 40.7525 41.0831C40.4068 41.0831 40.1145 41.0097 39.8754 40.8629C39.6386 40.7138 39.4587 40.5185 39.3356 40.277C39.2148 40.0331 39.1545 39.7656 39.1545 39.4744ZM40.195 39.0909V39.4744C40.195 39.6473 40.2352 39.8071 40.3157 39.9538C40.3986 40.1006 40.5442 40.174 40.7525 40.174C40.9703 40.174 41.1183 40.1006 41.1964 39.9538C41.2769 39.8071 41.3171 39.6473 41.3171 39.4744V39.0909C41.3171 38.9181 41.2792 38.7571 41.2035 38.608C41.1277 38.4588 40.9774 38.3842 40.7525 38.3842C40.5418 38.3842 40.3962 38.46 40.3157 38.6115C40.2352 38.763 40.195 38.9228 40.195 39.0909ZM39.6232 45L44.6232 37.7273H45.5536L40.5536 45H39.6232ZM56.54 41.3636C56.54 42.1567 56.3896 42.8314 56.089 43.3878C55.7907 43.9441 55.3835 44.3691 54.8674 44.6626C54.3536 44.9538 53.776 45.0994 53.1344 45.0994C52.4881 45.0994 51.9081 44.9527 51.3944 44.6591C50.8806 44.3655 50.4746 43.9406 50.1763 43.3842C49.878 42.8279 49.7289 42.1544 49.7289 41.3636C49.7289 40.5705 49.878 39.8958 50.1763 39.3395C50.4746 38.7831 50.8806 38.3594 51.3944 38.0682C51.9081 37.7746 52.4881 37.6278 53.1344 37.6278C53.776 37.6278 54.3536 37.7746 54.8674 38.0682C55.3835 38.3594 55.7907 38.7831 56.089 39.3395C56.3896 39.8958 56.54 40.5705 56.54 41.3636ZM54.981 41.3636C54.981 40.8499 54.9041 40.4167 54.7502 40.0639C54.5987 39.7112 54.3844 39.4437 54.1074 39.2614C53.8304 39.0791 53.5061 38.9879 53.1344 38.9879C52.7627 38.9879 52.4384 39.0791 52.1614 39.2614C51.8844 39.4437 51.669 39.7112 51.5151 40.0639C51.3636 40.4167 51.2878 40.8499 51.2878 41.3636C51.2878 41.8774 51.3636 42.3106 51.5151 42.6634C51.669 43.0161 51.8844 43.2836 52.1614 43.4659C52.4384 43.6482 52.7627 43.7393 53.1344 43.7393C53.5061 43.7393 53.8304 43.6482 54.1074 43.4659C54.3844 43.2836 54.5987 43.0161 54.7502 42.6634C54.9041 42.3106 54.981 41.8774 54.981 41.3636ZM57.679 45V37.7273H62.4943V38.995H59.2166V40.728H62.1747V41.9957H59.2166V45H57.679ZM63.5286 45V37.7273H68.3439V38.995H65.0662V40.728H68.0243V41.9957H65.0662V45H63.5286Z" fill="white"/>
<defs>
<linearGradient id="paint0_linear_634_1317" x1="46.5" y1="30" x2="46.5" y2="70.9444" gradientUnits="userSpaceOnUse">
<stop stop-color="#AD0F15"/>
<stop offset="1" stop-color="#AD0F15" stop-opacity="0"/>
</linearGradient>
</defs>
</svg>

<svg xmlns="http://www.w3.org/2000/svg" width="93" height="52" fill="none" viewBox="0 0 93 52"><path fill="#eb1c24" fill-rule="evenodd" d="M0 8a8 8 0 0 1 8-8h77a8 8 0 0 1 8 8v13.1a5.002 5.002 0 0 0 0 9.8V44a8 8 0 0 1-8 8H8a8 8 0 0 1-8-8V30.9a5.002 5.002 0 0 0 0-9.8z" clip-rule="evenodd"/><path fill="#fff" fill-rule="evenodd" d="M57.63 20.298c.517-2.99 3.711-4.507 6.07-4.361.91.056 1.695.362 2.152.926h.005c.189-.219.374-.435.565-.654.112-.126.427-.085.706-.03.318.065.655.208.873.208.22 0 .743-.175 1.239-.257s.969-.07.886.152l-.443 1.213h.008l-1.451 3.957c-.29.79.844.579 2.417-1.254.27.196.393.231.66.968-1.345 1.271-2.626 2.186-4.406 2.86-1.6.609-2.779-.27-3.147-1.735-2.272 2.344-5.437 2.318-6.347-.325-1.478.804-3.242 1.658-3.975 1.891-.573.185-1.095.31-1.586.316-.786.006-1.645-.8-1.375-1.987-1.303.634-2.337 1.049-3.831 1.616-1.6.608-2.518-.044-2.89-1.508-2.273 2.344-5.439 2.317-6.346-.328-.892.474-2.128 1.17-3.264 1.658-1.828.906-3.969.724-5.569-1.123l.523-.906c.753.883 1.671.833 2.393.117.767-.763 1.252-2.236.905-3.44-.154-.529-.695-.935-1.714-.862l.316-.924c1.04-.04 1.854-.192 2.303-.914.631-1.012.642-2.57-.712-2.528a2.9 2.9 0 0 0-.846.178c-.233.763-.647 1.666-.979 2.613-.759 2.16-1.608 4.56-2.592 6.105-1.176 1.841-2.43 2.207-3.444 2.13-1.059-.078-1.89-.432-3.052-1.583-.005-.488.04-.702.123-1.31.406.632 1.806 1.3 2.26.567 1.016-1.64 2.133-4.805 2.967-6.847-.754.274-1.452.78-2.441 1.534.01-.126-.33-.4-.316-.766 1.581-2.01 4.383-3.238 6.27-3.676 2.884-.673 5.977.303 6.442 2.311.31 1.339-1.125 2.596-2.47 2.777.774.503 1.597 1.376 1.804 2.443a3.7 3.7 0 0 1-.08 1.672c.454-.23 1-.535 1.361-.699.568-4.296 6.594-5.675 8.257-3.624l.57-.654c.112-.126.428-.085.706-.03.319.065.656.208.873.208.22 0 .743-.175 1.24-.257.496-.082.968-.07.886.152l-1.895 5.17c-.427 1.169 2.717-.9 2.903-1.014l1.35-3.163-1.39.02.25-1.3h1.536c.252-.368.329-.812.663-1.09.456-.377 1.494-.175 1.972-.517.41-.298.73-.745 1.111-1.432.33-.596 1.529-.442 1.298.123l-1.072 2.951 1.356-.014c.644.038.09 1.216-.642 1.224l-1.12.024-1.3 3.706c-.427 1.216 1.233.134 2.478-.672zM45.184 17.76c-.148-.561-.591-.713-.976-.67-.91.109-1.788 1.22-2.24 1.994-.721 1.239-.551 3.069.598 2.727 1.215-.36 2.833-3.236 2.618-4.054zm20.004 0c-.15-.561-.592-.713-.977-.67-.91.109-1.788 1.22-2.24 1.994-.721 1.239-.551 3.069.598 2.727 1.215-.36 2.836-3.236 2.619-4.054z" clip-rule="evenodd"/><path fill="url(#a)" d="M10 36a6 6 0 0 1 6-6h61a6 6 0 0 1 6 6v16H10z"/><path fill="#fff" d="m25.131 45 3.015-5.966v-.05h-3.512v-1.257h5.103v1.275L26.718 45zm5.308.092a.83.83 0 0 1-.604-.248.83.83 0 0 1-.248-.604q0-.348.248-.596a.83.83 0 0 1 .604-.25q.34 0 .597.25.255.248.255.596 0 .234-.12.43a.9.9 0 0 1-.31.309.8.8 0 0 1-.422.113m4.678.007a3.1 3.1 0 0 1-1.342-.277q-.587-.276-.93-.763a1.96 1.96 0 0 1-.36-1.115h1.492q.025.423.355.685t.785.263q.362 0 .639-.16.28-.163.437-.45.16-.292.16-.668 0-.384-.164-.675a1.16 1.16 0 0 0-.444-.455 1.3 1.3 0 0 0-.65-.166q-.319 0-.62.13a1.1 1.1 0 0 0-.466.36l-1.367-.245.344-3.836h4.446v1.257h-3.178l-.188 1.822h.042q.192-.27.58-.447.386-.178.866-.178.657 0 1.171.31.516.308.814.848.298.536.294 1.236.005.735-.34 1.306a2.4 2.4 0 0 1-.956.895q-.61.324-1.42.323m7.77-1.463v-.383q0-.437.184-.803.189-.368.544-.59.358-.222.873-.223.522 0 .877.22.36.22.54.59.185.366.185.806v.383q0 .438-.185.806-.184.367-.543.586-.359.224-.874.224-.522 0-.877-.224a1.45 1.45 0 0 1-.54-.585 1.8 1.8 0 0 1-.184-.807m1.033-.383v.383q0 .252.12.476.126.224.448.224.324 0 .44-.22a1 1 0 0 0 .121-.48v-.383a1.05 1.05 0 0 0-.113-.483q-.114-.224-.448-.224-.319 0-.444.224a1 1 0 0 0-.124.483m-4.766-3.779v-.383q0-.44.189-.806.187-.37.543-.59.36-.22.866-.22.525 0 .881.22t.54.59q.185.366.185.806v.383q0 .441-.189.807-.184.365-.543.586-.355.216-.873.216-.52 0-.878-.22a1.5 1.5 0 0 1-.54-.586 1.8 1.8 0 0 1-.18-.803m1.041-.383v.383q0 .26.12.48.126.22.438.22.326 0 .443-.22a1 1 0 0 0 .121-.48v-.383q0-.26-.114-.483-.113-.224-.45-.224-.317 0-.437.227-.12.228-.121.48M39.623 45l5-7.273h.93l-5 7.273zm16.917-3.636q0 1.189-.451 2.024a3.13 3.13 0 0 1-1.222 1.275 3.45 3.45 0 0 1-1.733.436 3.44 3.44 0 0 1-1.74-.44 3.13 3.13 0 0 1-1.218-1.275q-.447-.834-.447-2.02 0-1.19.447-2.024a3.1 3.1 0 0 1 1.218-1.272 3.44 3.44 0 0 1 1.74-.44q.963 0 1.733.44.775.437 1.222 1.272.45.833.451 2.024m-1.559 0q0-.77-.23-1.3-.228-.529-.644-.803a1.73 1.73 0 0 0-.973-.273 1.73 1.73 0 0 0-.973.273q-.415.274-.646.803-.227.53-.227 1.3t.227 1.3q.231.529.646.802t.973.273.973-.273.643-.803q.231-.529.231-1.3M57.679 45v-7.273h4.815v1.268h-3.277v1.733h2.958v1.268h-2.958V45zm5.85 0v-7.273h4.815v1.268h-3.278v1.733h2.958v1.268h-2.958V45z"/><defs><linearGradient id="a" x1="46.5" x2="46.5" y1="30" y2="70.944" gradientUnits="userSpaceOnUse"><stop stop-color="#ad0f15"/><stop offset="1" stop-color="#ad0f15" stop-opacity="0"/></linearGradient></defs></svg>
